!!!OTL: Die dienende Schwester.
!!!OTL-incipit: Der erste Koenig an dem Rhein,
!!!ARE: Europa, Mitteleuropa, Deutschland (BRD), Lueneburg
!!!YOR: 4, S. 108
!!    ????
!!!SCT: Q0075O
!!!TXL: @@DE
!!!YEM: Copyright 1995, estate of Helmut Schaffrath.
**kern	**text
*ICvox	*
*M3/4	*
*k[b-]	*
*F:	*
!LO:TX:a:t=81 Lüneburg	!
{8c	Der
8f	er-
8c	-ſte
=1	=1
4c	Kö-
4f	-nig
8e	an
8g	dem
=2	=2
4f	Rhein,
4r	.
8r}	.
{8f	der
=3	=3
16d	hatte
16d	ʒwei
16e	ge-
16e	.
4g	-lieb-
4f	-te
=4	=4
8d	Töchterlein;
8d	.
4c	.
8r}	.
{8c	die
=5	=5
8f	er-
8f	-ſie
4g	ging
4f	ins
=6	=6
4a	Klo-
4g}	-ſter
{8a	und
8g	die
=7	=7
8f	andre
8c	.
4c	in
4a	die
=8	=8
8g	wei-
8c	-te
4f	Welt.
8r}	.
{8c	die
=9	=9
8f	er-
8f	-ſie
4g	ging
4f	ins
=10	=10
4a	Klo-
4g}	-ſter
{8a	und
8g	die
=11	=11
8f	andre
8c	.
4c	in
4a	die
=12	=12
8g	wei-
8c	-te
4f	Welt.
4r	.
=13	=13
4.r}	.
==	==
!!!AGN: Ballade, Adelige als Dienstmagd, Tod; Kinder - Spiel, Tanz
!! Schlusspause eingefuegt.
!!!ONB: ESAC (Essen Associative Code) Database: BALLADE
!!!AMT: simple triple
!!!AIN: vox
!!!EED: Helmut Schaffrath
!!!EEV: 1.0
!!!source: Deutsche Volkslieder mit ihren Melodien. Herausgegeben vom Deutschen Volksliedarchiv. Vierter Band. Berlin 1959.
!!!page: 108
!!!ENC: Anna Maria Matuszewska
!!!EEV: 2025/02/27
*-	*-
